!!!!SEGMENT: pl-cz--i-23_gorczycki-grzegorz-gerwazy--vidi-aquam.krn
!!!cenid: 17xx:222
!!!COM: Gorczycki, Grzegorz Gerwazy
!!!COM-rismid: pe30009207
!!!CDT: ~1666-1734/04/30
!!!CNT: Polish
!!!OTL: Vidi aquam
!!!PDT:
!!!AGN:
!!!SMS-siglum: PL-CZ
!!!SMS-shelfmark: I-23
!!!SMS-shelfwork: W
!!!NIFC-rismid:
!!!URL-scan: http://repozytorium.nifc.pl/skany/pl-cz-nut--i-23
!!!ONB-nifc:
!!!key:
**kern	**kern	**text	**kern	**text	**kern	**text	**kern	**text
*part5	*part4	*part4	*part3	*part3	*part2	*part2	*part1	*part1
*	*group1	*	*group1	*	*group1	*	*group1	*
*staff5	*staff4	*staff4	*staff3	*staff3	*staff2	*staff2	*staff1	*staff1
*Iorgan	*Iempty	*	*Itenor	*	*Ialto	*	*Ivox	*
*I"Organo	*I"Baſso	*	*I"[Tenore]	*	*I"Alto	*	*I"Canto.	*
*I'Org	*I'B	*	*I'[T]	*	*I'A	*	*I'Canto.	*
*clefF4	*clefF4	*	*clefC4	*	*clefC3	*	*clefC1	*
*k[]	*k[]	*	*k[]	*	*k[]	*	*k[]	*
*C:	*C:	*	*C:	*	*C:	*	*C:	*
*M2/2	*M2/2	*	*M2/2	*	*M2/2	*	*M2/2	*
*met(c|)	*met(c|)	*	*met(c|)	*	*met(c|)	*	*met(c|)	*
=1	=1	=1	=1	=1	=1	=1	=1	=1
!LO:TX:a:i:t=Intonatio Vidi aquam	!LO:TX:a:i:t=Vidi Aquam	!	!	!	!LO:TX:b:t=P:problem=liczne poprawki w tekście	!	!LO:TX:a:i:t=Allabreve.	!
!LO:TX:b:i:t=Egredientem.	!	!	!LO:TX:t=P:problem=brak partii Tenora w źródle, rekonstrukcja M. Jochymczyk	!	!LO:TX:a:i:t=Vidi Aquam	!	!LO:TX:a:i:t=Vidi aquam	!
!LO:TX:a:t=P:problem=brak nazwy instrumentu na karcie głosu	!	!	!	!	!	!	!	!
1C/	1C/	-E	1G/	e-	1g\	E-	1cc\	E-
=2	=2	=2	=2	=2	=2	=2	=2	=2
*	*	*	*	*	*2\right	*	*2\right	*
2C/	2C/	-gre	2G/	-gre-	2e\	-gre	2cc\	-gre-
2C/	2C/	-di	2A\	-di-	2e\	di-	2cc\	-di-
=3	=3	=3	=3	=3	=3	=3	=3	=3
1F\	1F\	-en	1c\	-en-	1f\	-en-	1a\	-en-
=4	=4	=4	=4	=4	=4	=4	=4	=4
*2\right	*2\right	*	*	*	*	*	*	*
2F\	2F\	tem	2A\	-tem	2f\,	-tem	2a\,	-tem
2C/	2C/	de	2G/	de	2e\	de	2cc\	de
!LO:LB:g=original	!	!	!	!	!	!	!	!
=5	=5	=5	=5	=5	=5	=5	=5	=5
1G\	1G\	-tem-	1G/	tem-	1d\	-tem-	(2cc\	tem-
.	.	.	.	.	.	.	2b\)	.
=6	=6	=6	=6	=6	=6	=6	=6	=6
2C/	2C/	-plo	2G/	-plo,	2e\,	-plo	2cc\,	-plo
2C/	2C/	a	2G/	a	2e\	à	2cc\	à
!	!LO:LB:g=original	!	!	!	!LO:LB:g=original	!	!	!
=7	=7	=7	=7	=7	=7	=7	=7	=7
2.F\	2.F\	-la	2.A\	la-	2.f\	-la	2.cc\	la-
*	*4\right	*	*	*	*4\right	*	*4\right	*
4E\	4E\	-te	4G/	-te-	4g\	te-	4cc\	-te-
=8	=8	=8	=8	=8	=8	=8	=8	=8
2D\	2D\	re	2A\	-re	2f\,	-re	2a\,	-re
2G\	2G\	-de-	2G/	dex-	2d\	de-	2b\	dex-
!	!	!	!	!	!	!	!LO:LB:g=original	!
!	!	!	!	!	!	!	!LO:SIC:custos cc po kresce taktowej:v	!
=9	=9	=9	=9	=9	=9	=9	=9	=9
2C/	2C/	-xtro	2G/	-tro,	2e\,	-xtro	2cc\,	-tro
2GG/	2GG/	a	2B\	a	2g\	à	2dd\	à
=10	=10	=10	=10	=10	=10	=10	=10	=10
2.AA/	2.AA/	-la	2.A\	la-	2.e\	-la	2.cc\	la-
4BB/	4BB/	-te	4G/	-te-	4g\	te-	4b\	-te-
=11	=11	=11	=11	=11	=11	=11	=11	=11
!	!	!	!	!	!LO:TX:t=P:problem=powinna być ligatura	!	!	!
1D\	1.D\	re	2F#X/	-re	1d\	-re	[1a\	-re
.	.	.	[2G/	dex-	.	.	.	.
!LO:LB:g=original	!	!	!	!	!	!	!	!
=12	=12-	=12	=12	=12	=12	=12	=12	=12
*	*	*	*	*	*cue	*	*cue	*
!	!	!	!LO:N:vis=x	!	!LO:N:vis=x	!	!LO:N:vis=x	!
1D\	.	.	2G/]	.	2d\,	.	2a\],	.
*	*	*	*	*	*Xcue	*	*Xcue	*
.	2D/	-dex	2F#X/	.	2d\	dex	2a\	dex-
=13	=13	=13	=13	=13	=13	=13	=13	=13
1GG/;	1GG/	tro	1G/	-tro,	1d\	tro	1g\	-tro.
!	!LO:LB:g=original	!	!	!	!LO:LB:g=original	!	!	!
=14||	=14||	=14||	=14||	=14||	=14||;	=14||	=14||;	=14||
!LO:TX:b:i:t=Et Omnes	!	!	!	!	!	!	!	!
2C/	2C/	Et	2c\	et	2e\	Et	2g/	Et
4C/	4C/	-Om	4c\	om-	4e\	-Om	4g/	-om
4C/	4C/	nes	4c\	-nes,	4e\	nes	4g/	nes
=15	=15	=15	=15	=15	=15	=15	=15	=15
2C/	2C/	ad	2G/	ad	2e\	ad	2cc\	ad
4C/	4C/	quos	4G/	quos	4e\,	quos	4cc\	quos
4C/	4C/	-per	4G/	per-	4e\	-per	4cc\	per-
=16	=16	=16	=16	=16	=16	=16	=16	=16
2F\	2F\	-ve	2A\	-ve-	2c/	-ve	2cc\	-ve-
2E\	2E\	nit	2G/	-nit	2e\	nit	2cc\	-nit
=17	=17	=17	=17	=17	=17	=17	=17	=17
2D/	2D/	-a	2A\	a-	2f\	-a	2dd\	a-
2C/	2C/	qua	2c\	-qua	2e\	qua	2ee\	-qua
!	!	!	!	!	!	!	!LO:LB:g=original	!
=18	=18	=18	=18	=18	=18	=18	=18	=18
1G\	1G\	-i-	2c\	is-	1g\	i-	1dd\	i-
.	.	.	2B\	.	.	.	.	.
=19	=19	=19	=19	=19	=19	=19	=19	=19
1C/	1C/	-sta	1c\	-ta,	1e\	-sta	1cc\	-ſta
!LO:LB:g=original	!	!	!	!	!LO:LB:g=original	!	!	!
!	!	!	!	!	!LO:SIC:custos g po kresce taktowej:v	!	!	!
=20	=20	=20	=20	=20	=20	=20	=20	=20
2.G\	2.G\	-Sal	2.B\	sal-	2.g\	-Sal	2.dd\	Sal-
4E\	4E\	vi	4B\	-vi	4g\	vi	4ee\	-vi
!	!LO:LB:g=original	!	!	!	!	!	!	!
=21	=21	=21	=21	=21	=21	=21	=21	=21
2.F\	2.F\	-fac	2.A\	fac-	2.f\	-fac	2.cc\	fa-
4D\	4D/	ti	4A\	-ti	4f\	ti	4dd\	-cti
=22	=22	=22	=22	=22	=22	=22	=22	=22
2E\	2E\	sunt	2G/	sunt,	2e\,	sunt,	2b\	ſunt,
2C/	2C/	et	2G/	et	2e\	et	2cc\	et
=23	=23	=23	=23	=23	=23	=23	=23	=23
1GG/	1GG/	-di	1G/	di-	1d\	di-	1b\	di-
=24	=24	=24	=24	=24	=24	=24	=24	=24
1GG/	1GG/	cent	1G/	-cent,	1d\	-cent	1b\	-cent
=25	=25	=25	=25	=25	=25	=25	=25	=25
4G\	4G\	-Al	4d\	al-	4g\	-Al	4b\	Al-
4G\	4G\	-le	4d\	-le-	4g\	le-	4b\	-le
4G\	4G\	-lu	4d\	-lu-	4g\	-lu-	4b\	-lu
4G\	4G\	ia	4d\	-ia,	4g\	-ia	4b\	ja
!LO:LB:g=original	!	!	!	!	!LO:LB:g=original	!	!	!
=26	=26	=26	=26	=26	=26	=26	=26	=26
2.E\	2.E\	-Al	2.c\	al-	2.g\	-al	2.cc\	al-
4F\	4F\	-le	4c\	-le-	4a\	le-	4cc\	-le-
=27	=27	=27	=27	=27	=27	=27	=27	=27
1G\	1G\	-lu	1d\	-lu-	1g\	-lu-	(2cc\	-lu-
.	.	.	.	.	.	.	2b\)	.
!	!LO:LB:g=original	!	!	!	!	!	!	!
=28	=28	=28	=28	=28	=28	=28	=28	=28
!LO:TX:b:i:t=Intonatio\n Confitemini D(omin)o	!LO:TX:b:i:t=Confitemini D(omin)o \nIntonatio	!	!	!	!LO:TX:b:i:t=Confitemini D(omin)o\nIntonatio	!	!	!
1C/	1C/	ia	1c\	-ia.	1g\	-ia.	1cc\	-ja.
!LO:LB:g=original	!LO:PB:g=original	!	!	!	!LO:PB:g=original	!	!LO:LB:g=original	!
=29||	=29||	=29||	=29||	=29||	=29||;	=29||	=29||;	=29||
*M2/2	*M2/2	*	*M2/2	*	*M2/2	*	*M2/2	*
*met(c|)	*met(c|)	*	*met(c|)	*	*met(c|)	*	*met(c|)	*
!LO:TX:b:i:t=Quoniam in Saeculum	!	!	!	!	!	!	!	!
!	!	!	!	!	!	!	!LO:TX:a:i:t=  Confitemini D(omin)o\n Intonatio.	!
2.C/	2.C/	-Quo	2.G/	Quo-	2.e\	-Quo	2.cc\	-Quo
4C/	4C/	-ni	4G/	-ni-	4e\	ni-	4cc\	ni-
=30	=30	=30	=30	=30	=30	=30	=30	=30
2C/	2C/	am	2G/	-am	2e\	-am	2cc\	-am
2F\	2F\	in	2c\	in	2f\	in	2a\	in
=31	=31	=31	=31	=31	=31	=31	=31	=31
2.C/	2.C/	-Sae	2.G/	sae-	2.e\	-Sae-	2.cc\	-Sae
4C/	4C/	-cu	4G/	-cu-	4e\	-cu-	4cc\	cu-
=32	=32	=32	=32	=32	=32	=32	=32	=32
1C/	1C/	lum	1G/	-lum	1e\	-lum	1cc\	-lum
=33	=33	=33	=33	=33	=33	=33	=33	=33
2E\	2E\	-mi	2G/	mi-	2e\	-Mi	2b\	mi-
4E\	4E\	-se	4G/	-se-	4e\	-se	4b\	-se-
4BB/	4BB/	-ri	4G/	-ri-	4d\	ri-	4dd\	-ri-
!LO:LB:g=original	!	!	!	!	!	!	!	!
=34	=34	=34	=34	=34	=34	=34	=34	=34
2C/	2C/	-cor	2G/	-cor-	2e\	-cor	2cc\	-cor-
4C/	4C/	-di	4G/	-di-	4e\	-di	4cc\	-di-
4GG/	4GG/	a	4G/	-a	4d\	a	4b\	-a
!	!	!	!	!	!LO:LB:g=original	!	!	!
=35	=35	=35	=35	=35	=35	=35	=35	=35
1D\	1D\	-e-	2G/	e-	1d\	-ei-	1a\	E-
.	.	.	2F#X/	.	.	.	.	.
=36	=36	=36	=36	=36	=36	=36	=36	=36
!LO:TX:b:i:t=Intonatio Gloria\n Patri	!LO:TX:t=P:problem=pojedyncza kreska taktowa	!	!	!	!	!	!	!
1GG/	1GG/	-ius.	1G/	-ius.	1d\	-us	1b\	-jus.
!LO:PB:g=original	!LO:LB:g=original	!	!	!	!	!	!LO:LB:g=original	!
=37||	=37||	=37||	=37||	=37||	=37||;	=37||	=37||;	=37||
*M2/2	*M2/2	*	*M2/2	*	*M2/2	*	*M2/2	*
*met(c|)	*met(c|)	*	*met(c|)	*	*met(c|)	*	*met(c|)	*
!LO:TX:b:i:t=Sicut erat	!LO:TX:a:i:t=Gloria\n Intonatio	!	!	!	!LO:TX:a:i:t=Gloria Patri\nIntonatio	!	!LO:TX:a:i:t=Gloria Patri.\n Intonatio.	!
2.C/	2.C/	-Sic	2.G/	Sic-	2.e\	Si	2.cc\	Si-
4C/	4C/	ut	4G/	-ut	4e\	cut	4cc\	-cut
=38	=38	=38	=38	=38	=38	=38	=38	=38
2C/	2C/	-e	2G/	e-	2e\	-e	2cc\	e-
2C/	2C/	rat	2G/	-rat	2e\	rat	2cc\	-rat
!	!	!	!	!	!LO:LB:g=original	!	!	!
=39	=39	=39	=39	=39	=39	=39	=39	=39
2F\	2F\	in	2A\	in	2f\	in	2cc\	in
2C/	2C/	-prin	2G/	prin-	2e\	-prin	2cc\	prin-
=40	=40	=40	=40	=40	=40	=40	=40	=40
2.G\	2.G\	-ci	2.G/	-ci-	2.d\	-ci	2.cc\	-ci-
4G\	4G\	-pi	4G/	-pi-	4d\	pi-	4b\	-pi-
=41	=41	=41	=41	=41	=41	=41	=41	=41
4C/	4C/	o	4G/	-o,	4e\,	-o,	4cc\,	-o,
4C/	4C/	et	4G/	et	4e\	et	4cc\	et
!LO:LB:g=original	!	!	!	!	!	!	!	!
4C/	4C/	nunc	4G/	nunc,	4e\	nunc,	4cc\	nunc
4AA/	4AA/	et	4A\	et	4e\	et	4cc\	et
!	!LO:LB:g=original	!	!	!	!	!	!	!
=42	=42	=42	=42	=42	=42	=42	=42	=42
2E\	2E\	-sem	2G#X/	sem-	2f\	-sem	2b\	-Sem
!	!	!	!	!	!LO:TX:a:t=P:problem=dziwne znaczki pod nutą	!	!	!
2AA/	2AA/	per	2A\	-per,	2c#/	per,	2a\	per,
=43	=43	=43	=43	=43	=43	=43	=43	=43
2E\	2E\	et	2B\	et	2e\	et	2g\	et
!	!	!	!	!	!	!	!LO:LB:g=original	!
!	!	!	!	!	!	!	!LO:SIC:custos b:v	!
2BB/	2BB/	in	2d\	in	2f\	in	2b\	in
=44	=44	=44	=44	=44	=44	=44	=44	=44
2.D/	2.D/	-Sae	2.d\	sae-	2.g\	-Sae	2.a\	Sae-
4D/	4D/	-cu	4d\	-cu-	4f#X\	cu-	4a\	-cu-
!	!	!	!	!	!LO:LB:g=original	!	!	!
!	!	!	!	!	!LO:SIC:custos g po kresce taktowej:v	!	!	!
=45	=45	=45	=45	=45	=45	=45	=45	=45
1GG/	1GG/	la	1d\	-la	1g\	-la	1b\	-la
!LO:LB:g=original	!	!	!	!	!	!	!	!
=46	=46	=46	=46	=46	=46	=46	=46	=46
2.E\	2.E\	-Sae	2.e\	sae-	2.g\	-Sae	2.b\	Sae-
4BB/	4BB/	-cu	4d\	-cu-	4g\	cu-	4dd\	-cu-
=47	=47	=47	=47	=47	=47	=47	=47	=47
2C/	2C/	-lo	2c\	-lo-	2e\	-lo	2cc\	-lo-
2GG/	2GG/	rum	2G/	-rum.	2g\	rum	2b\	-rum
=48	=48	=48	=48	=48	=48	=48	=48	=48
1D\	1D\	-A-	2G/	A-	1d\	A-	1a\	a-
.	.	.	2F#X/	.	.	.	.	.
=49	=49	=49	=49	=49	=49	=49	=49	=49
!LO:TX:b:i:t=Et Omnes ut Supra	!LO:TX:b:i:t=Et omnes ut Supra.	!	!	!	!LO:TX:b:i:t=Et omnes\n ut Supra	!	!LO:TX:b:i:t=Et omnes\n ut Supra.	!
!	!LO:TX:b:i:t=R. Et in lumine tuo videbimus lumen Alleluia	!	!	!	!LO:TX:b:i:t=R. Et in lumine tuo videbimus lumen Alleluia.	!	!	!
1GG/	1GG/	-men	1G/	-men.	1d\	-men	1g\	-men.
=50||	=50||	=50||	=50||	=50||	=50||;	=50||	=50||;	=50||
!	!	!	!	!	!	!	!LO:TX:t=P:problem=głos zapisany na odwrocie partii Canto, nie wiadomo, w jakim kluczu, nie da się go podpisać pod resztą głosów	!
1ryy	1ryy	.	1ryy	.	1ryy	.	8cc\L	.
.	.	.	.	.	.	.	8gg\J	.
.	.	.	.	.	.	.	8r	.
.	.	.	.	.	.	.	8ff\	.
.	.	.	.	.	.	.	8ee\L	.
.	.	.	.	.	.	.	8dd\J	.
.	.	.	.	.	.	.	4r	.
=51	=51	=51	=51	=51	=51	=51	=51	=51
1ryy	1ryy	.	1ryy	.	1ryy	.	8cc\L	.
.	.	.	.	.	.	.	8gg\J	.
.	.	.	.	.	.	.	8r	.
.	.	.	.	.	.	.	8ff\	.
.	.	.	.	.	.	.	8ee\L	.
.	.	.	.	.	.	.	8dd\J	.
.	.	.	.	.	.	.	8dd\L	.
.	.	.	.	.	.	.	8ee\J	.
=52	=52	=52	=52	=52	=52	=52	=52	=52
1ryy	1ryy	.	1ryy	.	1ryy	.	8ff\L	.
.	.	.	.	.	.	.	8ff\	.
.	.	.	.	.	.	.	8ff\	.
.	.	.	.	.	.	.	8ff\J	.
.	.	.	.	.	.	.	16ff\LL	.
.	.	.	.	.	.	.	16aa\JJ	.
.	.	.	.	.	.	.	4ff\	.
.	.	.	.	.	.	.	8ff\	.
=53	=53	=53	=53	=53	=53	=53	=53	=53
1ryy	1ryy	.	1ryy	.	1ryy	.	4ee\	.
.	.	.	.	.	.	.	4dd\	.
.	.	.	.	.	.	.	4cc\	.
.	.	.	.	.	.	.	4r	.
!	!	!	!	!	!	!	!LO:LB:g=original	!
=54	=54	=54	=54	=54	=54	=54	=54	=54
1ryy	1ryy	.	1ryy	.	1ryy	.	16cc\LL	.
.	.	.	.	.	.	.	16g\	.
.	.	.	.	.	.	.	16ee\	.
.	.	.	.	.	.	.	16cc\JJ	.
.	.	.	.	.	.	.	16gg\LL	.
.	.	.	.	.	.	.	16ee\	.
.	.	.	.	.	.	.	16g\	.
.	.	.	.	.	.	.	16dd\JJ	.
.	.	.	.	.	.	.	16cc\LL	.
.	.	.	.	.	.	.	16g\	.
.	.	.	.	.	.	.	16b\	.
.	.	.	.	.	.	.	16dd\JJ	.
.	.	.	.	.	.	.	16gg\LL	.
.	.	.	.	.	.	.	16dd\	.
.	.	.	.	.	.	.	16b\	.
.	.	.	.	.	.	.	16g\JJ	.
=55	=55	=55	=55	=55	=55	=55	=55	=55
1ryy	1ryy	.	1ryy	.	1ryy	.	16cc\LL	.
.	.	.	.	.	.	.	16g\	.
.	.	.	.	.	.	.	16ee\	.
.	.	.	.	.	.	.	16cc\JJ	.
.	.	.	.	.	.	.	16gg\LL	.
.	.	.	.	.	.	.	16ee\	.
.	.	.	.	.	.	.	16g\	.
.	.	.	.	.	.	.	16dd\JJ	.
.	.	.	.	.	.	.	16cc\LL	.
.	.	.	.	.	.	.	16g\	.
.	.	.	.	.	.	.	16b\	.
.	.	.	.	.	.	.	16dd\JJ	.
.	.	.	.	.	.	.	16gg\LL	.
.	.	.	.	.	.	.	16dd\	.
.	.	.	.	.	.	.	16b\	.
!	!	!	!	!	!	!	!LO:TX:b:i:t=R. Et in lumine Tuo videbimus Lumen Alleluja..	!
.	.	.	.	.	.	.	16g\JJ	.
==	==	==	==	==	==	==	==	==
*-	*-	*-	*-	*-	*-	*-	*-	*-
!!!system-decoration: [g1]s5
!!!RDF**kern: > = above
!!!RDF**kern: < = below
!!!AIN: 1 alto 1 empty 1 organ 1 tenor 1 vox
!!!ENC: Anastazja Marusiak
!!!END: 2020-04-22
!!!ENC: Marta Lawrence
!!!END: 2020-10-11
